apps/scalable/gramps.svg

<?xml version="1.0" standalone="no"?><!-- Generator: Gravit.io --><svg xmlns="http://www.w3.org/2000/svg" xmlns:xlink="http://www.w3.org/1999/xlink" style="isolation:isolate" viewBox="0 0 256 256" width="256" height="256"><defs><filter id="cSI5Sen443ecI27ooH6hRE5hw5yZQtGw" x="-200%" y="-200%" width="400%" height="400%" filterUnits="objectBoundingBox" color-interpolation-filters="sRGB"><feGaussianBlur xmlns="http://www.w3.org/2000/svg" in="SourceGraphic" stdDeviation="4.294"/><feOffset xmlns="http://www.w3.org/2000/svg" dx="0" dy="4" result="pf_100_offsetBlur"/><feFlood xmlns="http://www.w3.org/2000/svg" flood-color="#000000" flood-opacity="0.4"/><feComposite xmlns="http://www.w3.org/2000/svg" in2="pf_100_offsetBlur" operator="in" result="pf_100_dropShadow"/><feBlend xmlns="http://www.w3.org/2000/svg" in="SourceGraphic" in2="pf_100_dropShadow" mode="normal"/></filter></defs><g filter="url(#cSI5Sen443ecI27ooH6hRE5hw5yZQtGw)"><path d=" M 166.351 13.28 C 240.407 13.28 250.991 23.837 250.991 97.824 L 250.991 157.075 C 250.991 231.061 240.407 241.619 166.351 241.619 L 90.982 241.619 C 16.926 241.619 6.343 231.061 6.343 157.075 L 6.343 97.824 C 6.343 23.837 16.926 13.28 90.982 13.28 L 166.351 13.28 L 166.351 13.28 Z " id="Path" fill="rgb(254,197,137)"/></g><g opacity="0.1"><path d=" M 249.643 83.58 L 44.234 236.61 C 55.796 238.921 70.66 239.629 89.757 239.629 L 165.127 239.629 C 239.182 239.629 249.766 229.071 249.766 155.085 L 249.766 95.834 C 249.766 91.531 249.725 87.464 249.643 83.58 L 249.643 83.58 Z " id="Path" fill="rgb(255,255,255)"/></g><path d=" M 152.267 166.463 L 152.214 185.444 L 165.441 185.515 L 165.459 181.356 L 156.382 181.312 L 156.424 166.398 L 156.436 166.397 L 156.43 164.354 L 156.436 162.31 L 156.424 162.309 L 156.382 147.396 L 165.459 147.342 L 165.441 143.192 L 152.214 143.254 L 152.267 162.241 L 144.556 162.113 L 144.551 162.433 L 144.485 162.435 L 144.518 164.352 L 144.485 166.272 L 144.551 166.274 L 144.556 166.585 L 152.267 166.463 L 152.267 166.463 Z  M 144.518 88.837 L 144.485 90.756 L 144.551 90.757 L 144.556 91.077 L 152.267 90.95 L 152.214 109.936 L 165.441 109.999 L 165.459 105.839 L 156.382 105.795 L 156.424 90.881 L 156.436 90.881 L 156.43 88.837 L 156.436 86.793 L 156.424 86.793 L 156.382 71.879 L 165.459 71.834 L 165.441 67.675 L 152.214 67.737 L 152.267 86.724 L 144.556 86.597 L 144.551 86.917 L 144.485 86.918 L 144.518 88.837 L 144.518 88.837 Z  M 101.406 124.44 L 101.358 90.809 L 110.435 90.765 L 110.417 86.606 L 97.19 86.677 L 97.243 124.371 L 89.532 124.243 L 89.526 124.564 L 89.46 124.565 L 89.493 126.482 L 89.46 128.403 L 89.527 128.404 L 89.532 128.715 L 97.243 128.593 L 97.19 166.29 L 110.417 166.353 L 110.435 162.194 L 101.358 162.149 L 101.406 128.528 L 101.411 128.528 L 101.409 126.483 L 101.411 124.44 L 101.406 124.44 L 101.406 124.44 Z " id="Compound Path" fill="rgb(254,254,254)"/><g opacity="0.4"><path d=" M 166.402 174.129 L 198.961 174.129 L 198.961 194.848 L 166.402 194.848 L 166.402 174.129 L 166.402 174.129 Z " id="Path" fill="rgb(243,79,23)"/></g><path d=" M 165.361 173.091 L 200 173.091 L 200 195.887 L 165.361 195.887 L 165.361 173.091 L 165.361 173.091 Z  M 167.441 175.171 L 197.92 175.171 L 197.92 193.807 L 167.441 193.807 L 167.441 175.171 L 167.441 175.171 Z " fill-rule="evenodd" id="Compound Path" fill="rgb(214,67,16)"/><g opacity="0.4"><path d=" M 166.402 134.858 L 198.961 134.858 L 198.961 155.577 L 166.402 155.577 L 166.402 134.858 L 166.402 134.858 Z " id="Path" fill="rgb(243,79,23)"/></g><path d=" M 165.361 133.82 L 200 133.82 L 200 156.615 L 165.361 156.615 L 165.361 133.82 L 165.361 133.82 Z  M 167.441 135.9 L 197.92 135.9 L 197.92 154.536 L 167.441 154.536 L 167.441 135.9 L 167.441 135.9 Z " fill-rule="evenodd" id="Compound Path" fill="rgb(214,67,16)"/><g opacity="0.4"><path d=" M 165.822 97.416 L 198.381 97.416 L 198.381 118.135 L 165.822 118.135 L 165.822 97.416 L 165.822 97.416 Z " id="Path" fill="rgb(243,79,23)"/></g><path d=" M 164.781 96.379 L 199.42 96.379 L 199.42 119.174 L 164.781 119.174 L 164.781 96.379 L 164.781 96.379 Z  M 166.86 98.458 L 197.34 98.458 L 197.34 117.094 L 166.86 117.094 L 166.86 98.458 L 166.86 98.458 Z " fill-rule="evenodd" id="Compound Path" fill="rgb(214,67,16)"/><g opacity="0.4"><path d=" M 165.822 59.038 L 198.381 59.038 L 198.381 79.757 L 165.822 79.757 L 165.822 59.038 L 165.822 59.038 Z " id="Path" fill="rgb(243,79,23)"/></g><path d=" M 164.781 58 L 199.42 58 L 199.42 80.795 L 164.781 80.795 L 164.781 58 L 164.781 58 Z  M 166.86 60.08 L 197.34 60.08 L 197.34 78.716 L 166.86 78.716 L 166.86 60.08 L 166.86 60.08 Z " fill-rule="evenodd" id="Compound Path" fill="rgb(214,67,16)"/><g opacity="0.4"><path d=" M 111.378 154.092 L 143.936 154.092 L 143.936 174.811 L 111.378 174.811 L 111.378 154.092 L 111.378 154.092 Z " id="Path" fill="rgb(243,79,23)"/></g><path d=" M 110.337 153.054 L 144.976 153.054 L 144.976 175.849 L 110.337 175.849 L 110.337 153.054 L 110.337 153.054 Z  M 112.416 155.134 L 142.896 155.134 L 142.896 173.77 L 112.416 173.77 L 112.416 155.134 L 112.416 155.134 Z " fill-rule="evenodd" id="Compound Path" fill="rgb(214,67,16)"/><g opacity="0.4"><path d=" M 111.378 78.673 L 143.936 78.673 L 143.936 99.392 L 111.378 99.392 L 111.378 78.673 L 111.378 78.673 Z " id="Path" fill="rgb(243,79,23)"/></g><path d=" M 110.337 77.636 L 144.976 77.636 L 144.976 100.431 L 110.337 100.431 L 110.337 77.636 L 110.337 77.636 Z  M 112.416 79.715 L 142.896 79.715 L 142.896 98.351 L 112.416 98.351 L 112.416 79.715 L 112.416 79.715 Z " fill-rule="evenodd" id="Compound Path" fill="rgb(214,67,16)"/><g id="Group"><g opacity="0.4"><path d=" M 56.041 116.159 L 88.6 116.159 L 88.6 136.878 L 56.041 136.878 L 56.041 116.159 L 56.041 116.159 Z " id="Path" fill="rgb(243,79,23)"/></g><path d=" M 55 115.122 L 89.639 115.122 L 89.639 137.917 L 55 137.917 L 55 115.122 L 55 115.122 Z  M 57.08 117.201 L 87.559 117.201 L 87.559 135.837 L 57.08 135.837 L 57.08 117.201 L 57.08 117.201 Z " fill-rule="evenodd" id="Compound Path" fill="rgb(214,67,16)"/></g><g opacity="0.4"><linearGradient id="_lgradient_194" x1="0.5166666666666668" y1="0" x2="0.5166666666666666" y2="1.0000000000000002" gradientTransform="matrix(244.65,0,0,228.34,5.68,11.95)" gradientUnits="userSpaceOnUse"><stop offset="0%" stop-opacity="1" style="stop-color:rgb(255,255,255)"/><stop offset="12.5%" stop-opacity="0.09803922" style="stop-color:rgb(255,255,255)"/><stop offset="92.500001%" stop-opacity="0.09803922" style="stop-color:rgb(0,0,0)"/><stop offset="100%" stop-opacity="0.49803922" style="stop-color:rgb(0,0,0)"/></linearGradient><path d=" M 165.06803 11.951234 C 169.395994 11.941409 173.723944 11.990533 178.051908 12.088781 C 181.927398 12.167379 185.802873 12.31475 189.678362 12.540721 C 193.1309 12.737216 196.583423 13.022134 200.026115 13.395476 C 203.085193 13.729518 206.144271 14.181458 209.173842 14.741469 C 211.888645 15.242533 214.57394 15.881143 217.219897 16.6573 C 219.619947 17.354858 221.970814 18.219439 224.242988 19.241215 C 226.357793 20.184394 228.384061 21.304417 230.302129 22.591462 C 232.141505 23.829383 233.862851 25.244151 235.436659 26.80629 C 237.000621 28.378252 238.417046 30.087764 239.656409 31.924995 C 240.944972 33.840824 242.066305 35.864728 243.020409 37.967229 C 244.043389 40.246576 244.908985 42.584873 245.617197 44.972292 C 246.394255 47.615155 247.033606 50.297317 247.535265 53.008956 C 248.095924 56.034984 248.548399 59.080665 248.882828 62.13617 C 249.256611 65.574836 249.541856 69.013506 249.738578 72.462003 C 249.964823 76.323139 250.112361 80.194101 250.200884 84.055237 C 250.289421 88.378131 250.338591 92.701032 250.32876 97.014106 L 250.32876 155.225886 C 250.338591 159.54878 250.289421 163.861854 250.200884 168.184747 C 250.112361 172.05571 249.964823 175.916853 249.738578 179.777981 C 249.541856 183.226485 249.256611 186.674975 248.882828 190.103826 C 248.548399 193.15933 248.095924 196.214835 247.535265 199.240851 C 247.033606 201.942664 246.394255 204.624837 245.617197 207.267703 C 244.908985 209.655115 244.043389 212.003235 243.020409 214.272755 C 242.066305 216.38509 240.944972 218.399156 239.656409 220.314999 C 238.417046 222.152226 237.000621 223.871561 235.436659 225.433697 C 233.862851 226.995832 232.141505 228.410601 230.302129 229.648532 C 228.384061 230.935575 226.357793 232.055598 224.242988 232.998768 C 221.970814 234.020552 219.619947 234.885137 217.219897 235.592507 C 214.57394 236.368672 211.888645 237.007276 209.173842 237.498515 C 206.144271 238.068354 203.085193 238.510465 200.026115 238.844519 C 196.583423 239.21785 193.1309 239.502777 189.678362 239.699269 C 185.802873 239.925235 181.927398 240.072615 178.051908 240.161035 C 173.723944 240.249454 169.395994 240.298581 165.06803 240.288762 L 90.941963 240.288762 C 86.614006 240.298581 82.286049 240.249454 77.9581 240.161035 C 74.08261 240.072615 70.20712 239.925235 66.331638 239.699269 C 62.879108 239.502777 59.426578 239.21785 55.983886 238.844519 C 52.924808 238.510465 49.865733 238.068354 46.836162 237.498515 C 44.121356 237.007276 41.436057 236.368672 38.7901 235.592507 C 36.390053 234.885137 34.039187 234.020552 31.767009 232.998768 C 29.652213 232.055598 27.625943 230.935575 25.707871 229.648532 C 23.868489 228.410601 22.147143 226.995832 20.573343 225.433697 C 19.009377 223.871561 17.592955 222.152226 16.353586 220.314999 C 15.065036 218.399156 13.943701 216.38509 12.989584 214.272755 C 11.966612 212.003235 11.101021 209.655115 10.392811 207.267703 C 9.615746 204.624837 8.976389 201.942664 8.47474 199.240851 C 7.914072 196.214835 7.461604 193.15933 7.127172 190.103826 C 6.753394 186.674975 6.468142 183.226485 6.271417 179.777981 C 6.045183 175.916853 5.897639 172.05571 5.809112 168.184747 C 5.720586 163.861854 5.671405 159.54878 5.681241 155.225886 L 5.681241 97.014106 C 5.671405 92.701032 5.720586 88.378131 5.809112 84.055237 C 5.897639 80.194101 6.045183 76.323139 6.271417 72.462003 C 6.468142 69.013506 6.753394 65.574836 7.127172 62.13617 C 7.461604 59.080665 7.914072 56.034984 8.47474 53.008956 C 8.976389 50.297317 9.615746 47.615155 10.392811 44.972292 C 11.101021 42.584873 11.966612 40.246576 12.989584 37.967229 C 13.943701 35.864728 15.065036 33.840824 16.353586 31.924995 C 17.592955 30.087764 19.009377 28.378252 20.573343 26.80629 C 22.147143 25.244151 23.868489 23.829383 25.707871 22.591462 C 27.625943 21.304417 29.652213 20.184394 31.767009 19.241215 C 34.039187 18.219439 36.390053 17.354858 38.7901 16.6573 C 41.436057 15.881143 44.121356 15.242533 46.836162 14.741469 C 49.865733 14.181458 52.924808 13.729518 55.983886 13.395476 C 59.426578 13.022134 62.879108 12.737216 66.331638 12.540721 C 70.20712 12.31475 74.08261 12.167379 77.9581 12.088781 C 82.286049 11.990533 86.614006 11.941409 90.941963 11.951234 L 165.06803 11.951234 Z  M 165.077876 15.959741 C 169.376317 15.949916 173.674759 15.99904 177.973216 16.087463 C 181.799522 16.175886 185.625827 16.323257 189.452133 16.539402 C 192.835809 16.735898 196.219486 17.010992 199.583486 17.384332 C 202.554026 17.698726 205.514751 18.131016 208.445953 18.681203 C 211.023049 19.152792 213.580483 19.761928 216.098564 20.498786 C 218.321569 21.147221 220.495374 21.952852 222.600334 22.896029 C 224.508571 23.750785 226.338116 24.762737 228.069293 25.922059 C 229.692286 27.012609 231.207063 28.260355 232.59398 29.645648 C 233.980897 31.030941 235.230091 32.543956 236.331763 34.165043 C 237.492434 35.894202 238.505568 37.711787 239.361333 39.607968 C 240.305606 41.720292 241.112187 43.891565 241.761369 46.102139 C 242.508934 48.617282 243.108947 51.161898 243.590914 53.735987 C 244.131912 56.663768 244.564709 59.6112 244.889308 62.578282 C 245.263091 65.938355 245.538505 69.308252 245.735227 72.687976 C 245.951626 76.509812 246.10901 80.321821 246.187687 84.143656 C 246.276225 88.437084 246.325394 92.720685 246.325394 97.014106 C 246.325394 97.014106 246.325394 97.014106 246.325394 97.014106 L 246.325394 155.225886 C 246.325394 155.225886 246.325394 155.225886 246.325394 155.225886 C 246.325394 159.519306 246.276225 163.802907 246.187687 168.096328 C 246.10901 171.918164 245.951626 175.739999 245.735227 179.552015 C 245.538505 182.931739 245.263091 186.301629 244.889308 189.671533 C 244.564709 192.628784 244.131912 195.576216 243.590914 198.503994 C 243.108947 201.078094 242.508934 203.622706 241.761369 206.137845 C 241.112187 208.358253 240.305606 210.5197 239.361333 212.63202 C 238.505568 214.528209 237.492434 216.355617 236.331763 218.074952 C 235.230091 219.705853 233.980897 221.218876 232.59398 222.604172 C 231.207063 223.979634 229.692286 225.227385 228.069293 226.317935 C 226.338116 227.477251 224.508571 228.489201 222.600334 229.343951 C 220.495374 230.296956 218.321569 231.092775 216.098564 231.741198 C 213.580483 232.478056 211.023049 233.087202 208.445953 233.558787 C 205.514751 234.108972 202.554026 234.541264 199.583486 234.865483 C 196.219486 235.228995 192.835809 235.513922 189.452133 235.70058 C 185.625827 235.916726 181.799522 236.073926 177.973216 236.152526 C 173.674759 236.25078 169.376317 236.290072 165.077876 236.290072 C 165.077876 236.290072 165.077876 236.290072 165.06803 236.290072 L 90.941963 236.290072 C 90.932125 236.290072 90.932125 236.290072 90.932125 236.290072 C 86.633683 236.290072 82.335234 236.25078 78.036784 236.152526 C 74.210479 236.073926 70.384173 235.916726 66.557868 235.70058 C 63.174195 235.513922 59.790522 235.228995 56.426518 234.865483 C 53.455967 234.541264 50.495253 234.108972 47.564048 233.558787 C 44.986944 233.087202 42.429517 232.478056 39.911433 231.741198 C 37.688439 231.092775 35.514626 230.296956 33.409665 229.343951 C 31.501429 228.489201 29.671886 227.477251 27.940703 226.317935 C 26.31772 225.227385 24.802935 223.979634 23.416022 222.604172 C 22.029109 221.218876 20.779904 219.705853 19.678243 218.074952 C 18.517564 216.355617 17.504428 214.528209 16.648674 212.63202 C 15.704392 210.5197 14.897819 208.358253 14.248626 206.137845 C 13.50107 203.622706 12.901057 201.078094 12.419081 198.503994 C 11.878086 195.576216 11.445291 192.628784 11.120694 189.671533 C 10.746916 186.301629 10.471501 182.931739 10.274776 179.552015 C 10.058378 175.739999 9.900997 171.918164 9.822307 168.096328 C 9.733781 163.802907 9.6846 159.519306 9.6846 155.225886 C 9.6846 155.225886 9.6846 155.225886 9.6846 155.225886 L 9.6846 97.014106 C 9.6846 97.014106 9.6846 97.014106 9.6846 97.014106 C 9.6846 92.720685 9.733781 88.437084 9.822307 84.143656 C 9.900997 80.321821 10.058378 76.509812 10.274776 72.687976 C 10.471501 69.308252 10.746916 65.938355 11.120694 62.578282 C 11.445291 59.6112 11.878086 56.663768 12.419081 53.735987 C 12.901057 51.161898 13.50107 48.617282 14.248626 46.102139 C 14.897819 43.891565 15.704392 41.720292 16.648674 39.607968 C 17.504428 37.711787 18.517564 35.894202 19.678243 34.165043 C 20.779904 32.543956 22.029109 31.030941 23.416022 29.645648 C 24.802935 28.260355 26.31772 27.012609 27.940703 25.922059 C 29.671886 24.762737 31.501429 23.750785 33.409665 22.896029 C 35.514626 21.952852 37.688439 21.147221 39.911433 20.498786 C 42.429517 19.761928 44.986944 19.152792 47.564048 18.681203 C 50.495253 18.131016 53.455967 17.698726 56.426518 17.384332 C 59.790522 17.010992 63.174195 16.735898 66.557868 16.539402 C 70.384173 16.323257 74.210479 16.175886 78.036784 16.087463 C 82.335234 15.99904 86.633683 15.949916 90.932125 15.959741 C 90.932125 15.959741 90.932125 15.959741 90.941963 15.959741 L 165.06803 15.959741 C 165.077876 15.959741 165.077876 15.959741 165.077876 15.959741 Z " fill-rule="evenodd" id="highlight" fill="url(#_lgradient_194)"/></g></svg>

<svg xmlns="http://www.w3.org/2000/svg" style="isolation:isolate" width="256" height="256"><defs><filter id="a" width="270.648" height="254.338" x="-6.66" y="4.28" filterUnits="userSpaceOnUse"><feGaussianBlur xmlns="http://www.w3.org/2000/svg" in="SourceGraphic" stdDeviation="4.294"/><feOffset xmlns="http://www.w3.org/2000/svg" dy="4" result="pf_100_offsetBlur"/><feFlood xmlns="http://www.w3.org/2000/svg" flood-opacity=".4"/><feComposite xmlns="http://www.w3.org/2000/svg" in2="pf_100_offsetBlur" operator="in" result="pf_100_dropShadow"/><feBlend xmlns="http://www.w3.org/2000/svg" in="SourceGraphic" in2="pf_100_dropShadow"/></filter></defs><path fill="#FEC589" d="M166.351 13.28c74.056 0 84.64 10.557 84.64 84.544v59.251c0 73.986-10.584 84.544-84.64 84.544H90.982c-74.056 0-84.639-10.558-84.639-84.544V97.824c0-73.987 10.583-84.544 84.639-84.544h75.369z" filter="url(#a)"/><path fill="#FFF" d="M249.643 83.58L44.234 236.61c11.562 2.311 26.426 3.019 45.523 3.019h75.37c74.055 0 84.639-10.558 84.639-84.544V95.834c0-4.303-.041-8.37-.123-12.254z" opacity=".1"/><g opacity=".4"><linearGradient id="b" x1=".517" x2=".517" y2="1"><stop offset="0%" stop-color="#fff"/><stop offset="12.5%" stop-opacity=".098" stop-color="#fff"/><stop offset="92.5%" stop-opacity=".098"/><stop offset="100%" stop-opacity=".498"/></linearGradient><path fill="none" stroke="url(#b)" stroke-linecap="round" stroke-linejoin="round" stroke-width="4.077" d="M165.685 11.947c74.055 0 84.639 10.557 84.639 84.544v59.251c0 73.986-10.584 84.543-84.639 84.543h-75.37c-74.055 0-84.639-10.557-84.639-84.543V96.491c0-73.987 10.584-84.544 84.639-84.544h75.37z" vector-effect="non-scaling-stroke"/></g><path d="M152.267 166.463l-.053 18.981 13.227.071.018-4.159-9.077-.044.042-14.914.012-.001-.006-2.043.006-2.044-.012-.001-.042-14.913 9.077-.054-.018-4.15-13.227.062.053 18.987-7.711-.128-.005.32-.066.002.033 1.917-.033 1.92.066.002.005.311 7.711-.122zm-7.749-77.626l-.033 1.919.066.001.005.32 7.711-.127-.053 18.986 13.227.063.018-4.16-9.077-.044.042-14.914h.012l-.006-2.044.006-2.044h-.012l-.042-14.914 9.077-.045-.018-4.159-13.227.062.053 18.987-7.711-.127-.005.32-.066.001.033 1.919zm-43.112 35.603l-.048-33.631 9.077-.044-.018-4.159-13.227.071.053 37.694-7.711-.128-.006.321-.066.001.033 1.917-.033 1.921.067.001.005.311 7.711-.122-.053 37.697 13.227.063.018-4.159-9.077-.045.048-33.621h.005l-.002-2.045.002-2.043h-.005z" fill="#FEFEFE"/><path fill="#F34F17" d="M166.402 174.129h32.559v20.719h-32.559v-20.719z" opacity=".4"/><path fill="#D64310" fill-rule="evenodd" d="M165.361 173.091H200v22.796h-34.639v-22.796zm2.08 2.08h30.479v18.636h-30.479v-18.636z"/><path fill="#F34F17" d="M166.402 134.858h32.559v20.719h-32.559v-20.719z" opacity=".4"/><path fill="#D64310" fill-rule="evenodd" d="M165.361 133.82H200v22.795h-34.639V133.82zm2.08 2.08h30.479v18.636h-30.479V135.9z"/><path fill="#F34F17" d="M165.822 97.416h32.559v20.719h-32.559V97.416z" opacity=".4"/><path fill="#D64310" fill-rule="evenodd" d="M164.781 96.379h34.639v22.795h-34.639V96.379zm2.079 2.079h30.48v18.636h-30.48V98.458z"/><path fill="#F34F17" d="M165.822 59.038h32.559v20.719h-32.559V59.038z" opacity=".4"/><path fill="#D64310" fill-rule="evenodd" d="M164.781 58h34.639v22.795h-34.639V58zm2.079 2.08h30.48v18.636h-30.48V60.08z"/><path fill="#F34F17" d="M111.378 154.092h32.558v20.719h-32.558v-20.719z" opacity=".4"/><path fill="#D64310" fill-rule="evenodd" d="M110.337 153.054h34.639v22.795h-34.639v-22.795zm2.079 2.08h30.48v18.636h-30.48v-18.636z"/><path fill="#F34F17" d="M111.378 78.673h32.558v20.719h-32.558V78.673z" opacity=".4"/><path fill="#D64310" fill-rule="evenodd" d="M110.337 77.636h34.639v22.795h-34.639V77.636zm2.079 2.079h30.48v18.636h-30.48V79.715z"/><g><path fill="#F34F17" d="M56.041 116.159H88.6v20.719H56.041v-20.719z" opacity=".4"/><path fill="#D64310" fill-rule="evenodd" d="M55 115.122h34.639v22.795H55v-22.795zm2.08 2.079h30.479v18.636H57.08v-18.636z"/></g></svg>
